X: 1
T: Maud Millar - 1st setting
R: reel
S: https://thesession.org/tunes/1177
N: Chords and simplification by John Chambers 2019
M: 4/4
L: 1/8
K: Em
{f}gf |\
"G"edBA "(D)"GBDE | "G"G2BG dGBd |\
"G"eBdB "D"A2GA | "Em"Beed e2 :|
ge |\
"G"dega bgg2 | "D"agef "G"gfge |\
"G"dega bgg2 | "D"aged "G"ga ||
ge |\
"G"dega bgg2 | "D"agef "G"g3a |\
"G"bgaf "D(Bm)"gfed | "Em"Beed "(D7)"e |]

%%sep 1 1 500

